logo/dark.svg

<svg xmlns="http://www.w3.org/2000/svg" width="320" height="98" fill="none" viewBox="0 0 3200 979"><g fill="#fff" clip-path="url(#a)"><path d="M1027.87 419.53c0-160.831 102.21-275.834 273.57-275.834 145.04 0 239 81.931 254.78 193.138h-94.69c-16.52-71.406-72.14-115.736-159.33-115.736-116.5 0-183.38 78.167-183.38 198.401 0 120.233 66.88 198.4 183.38 198.4 87.19 0 142.78-44.33 159.33-115.736h94.69c-15.78 111.239-109.74 193.138-254.78 193.138-171.36 0-273.57-115.003-273.57-275.834zM1602.02 156.479h81.93V682.57h-81.93zM1732.77 507.445c0-102.947 65.38-184.145 174.36-184.145 46.59 0 88.69 21.049 109.74 56.354v-47.36h81.93v350.239h-81.93v-47.36c-21.05 35.336-69.14 56.353-111.98 56.353-112.73 0-172.12-81.165-172.12-184.145zm287.86 0c0-60.116-33.81-111.239-103.71-111.239-63.88 0-102.22 47.359-102.22 111.239s38.34 111.24 102.22 111.24c69.9 0 103.71-51.091 103.71-111.24M2173.91 332.33h81.93v67.643c12.79-49.592 54.85-72.14 93.19-72.14 12.79 0 23.31.765 32.31 2.998V406c-12.79-1.499-19.55-1.499-32.31-1.499-57.89 0-93.19 43.597-93.19 123.263V682.6h-81.93V332.33M2399.44 221.127c0-33.805 24.81-60.882 60.88-60.882s60.88 27.045 60.88 60.882c0 33.838-24.81 60.882-60.88 60.882s-60.88-27.044-60.88-60.882m19.55 111.24h81.93v350.238h-81.93zM2557.98 226.389h81.93v105.978h80.43v68.376h-80.43v144.312c0 60.882 18.79 68.377 51.09 68.377 12.79 0 33.08-1.499 41.34-2.998v72.14c-12.79 2.264-36.84 4.496-60.89 4.496-39.83 0-113.47-5.262-113.47-123.263zM3097.6 332.331v351.738c0 54.854-16.52 96.186-45.86 124.762-28.57 26.311-69.14 40.598-118.73 40.598-49.6 0-92.46-12.788-120.27-36.07-24.81-21.782-38.33-52.621-39.07-90.924h82.67c3.76 38.334 22.55 59.383 75.17 59.383 48.86 0 84.16-29.309 84.16-103.713v-44.33c-21.78 37.569-60.88 57.884-112.74 57.884-86.43 0-129.26-61.615-129.26-145.81V332.395h81.93v196.168c0 51.857 17.29 90.925 75.91 90.925s84.16-45.861 84.16-105.978V332.395h81.93zM2222.01 847.169l29.05 57.087h-62l-23.34-46.435h-15.05v46.435h-53.97V722.662h87.68c38.9 0 67.45 28.799 67.45 67.707 0 24.653-11.42 45.128-29.82 56.8m-71.34-31.127h22.32c13.75 0 24.11-10.907 24.11-25.673s-10.36-25.673-23.85-25.673h-22.58v51.378zM2278.74 813.455c0-56.29 40.98-96.506 100.65-96.506 56.55 0 93.38 27.746 97.82 75.489h-57.09c-3.64-16.616-18.15-27.491-40.47-27.491-28.03 0-44.62 18.688-44.62 48.508 0 29.819 16.62 48.507 44.62 48.507 22.32 0 36.83-10.907 40.47-27.491h57.09c-4.4 47.743-41.24 75.489-97.82 75.489-59.67 0-100.65-40.216-100.65-96.505M2519.96 722.662h68.48l38.65 118.543 38.4-118.543h66.94v181.594h-51.89V789.062l-33.2 115.194h-39.96l-35.53-115.705v115.705h-51.89zM481.812 640.726l35.336 35.336a291.26 291.26 0 0 0 205.959 85.312c0-133.245-108.018-241.296-241.295-241.296S240.517 628.097 240.517 761.374a291.26 291.26 0 0 0 205.959-85.312zM325.126 369.297l-48.284 12.948C202.246 402.209 138.621 451.036 100 517.914c115.417 66.622 262.982 27.076 329.605-88.309 66.622-115.418 27.076-262.982-88.31-329.605a291.25 291.25 0 0 0-29.085 221.012l12.948 48.285zM638.563 369.294l12.948-48.284c19.997-74.628 9.504-154.103-29.117-221.012-115.417 66.622-154.932 214.187-88.309 329.604 66.622 115.418 214.187 154.932 329.604 88.309-38.621-66.909-102.246-115.704-176.841-135.7l-48.285-12.949z"/></g><defs><clipPath id="a"><path fill="#fff" d="M100 100h2997.63v809.963H100z"/></clipPath></defs></svg>

<svg width="3200" height="979" viewBox="0 0 3200 979" fill="none" xmlns="http://www.w3.org/2000/svg">
<g clip-path="url(#clip0_2858_1276)">
<path d="M1027.87 419.53C1027.87 258.699 1130.08 143.696 1301.44 143.696C1446.48 143.696 1540.44 225.627 1556.22 336.834H1461.53C1445.01 265.428 1389.39 221.098 1302.2 221.098C1185.7 221.098 1118.82 299.265 1118.82 419.499C1118.82 539.732 1185.7 617.899 1302.2 617.899C1389.39 617.899 1444.98 573.569 1461.53 502.163H1556.22C1540.44 613.402 1446.48 695.301 1301.44 695.301C1130.08 695.301 1027.87 580.298 1027.87 419.467V419.53Z" fill="white"/>
<path d="M1602.02 156.479H1683.95V682.57H1602.02V156.479Z" fill="white"/>
<path d="M1732.77 507.445C1732.77 404.498 1798.15 323.3 1907.13 323.3C1953.72 323.3 1995.82 344.349 2016.87 379.654V332.294H2098.8V682.533H2016.87V635.173C1995.82 670.509 1947.73 691.526 1904.89 691.526C1792.16 691.526 1732.77 610.361 1732.77 507.381V507.445ZM2020.63 507.445C2020.63 447.329 1986.82 396.206 1916.92 396.206C1853.04 396.206 1814.7 443.565 1814.7 507.445C1814.7 571.325 1853.04 618.685 1916.92 618.685C1986.82 618.685 2020.63 567.594 2020.63 507.445Z" fill="white"/>
<path d="M2173.91 332.33H2255.84V399.973C2268.63 350.381 2310.69 327.833 2349.03 327.833C2361.82 327.833 2372.34 328.598 2381.34 330.831V406C2368.55 404.501 2361.79 404.501 2349.03 404.501C2291.14 404.501 2255.84 448.098 2255.84 527.764V682.6H2173.91V332.362V332.33Z" fill="white"/>
<path d="M2399.44 221.127C2399.44 187.322 2424.25 160.245 2460.32 160.245C2496.39 160.245 2521.2 187.29 2521.2 221.127C2521.2 254.965 2496.39 282.009 2460.32 282.009C2424.25 282.009 2399.44 254.965 2399.44 221.127ZM2418.99 332.367H2500.92V682.605H2418.99V332.367Z" fill="white"/>
<path d="M2557.98 226.389H2639.91V332.367H2720.34V400.743H2639.91V545.055C2639.91 605.937 2658.7 613.432 2691 613.432C2703.79 613.432 2724.08 611.933 2732.34 610.434V682.574C2719.55 684.838 2695.5 687.07 2671.45 687.07C2631.62 687.07 2557.98 681.808 2557.98 563.807V226.389Z" fill="white"/>
<path d="M3097.6 332.331V684.069C3097.6 738.923 3081.08 780.255 3051.74 808.831C3023.17 835.142 2982.6 849.429 2933.01 849.429C2883.41 849.429 2840.55 836.641 2812.74 813.359C2787.93 791.577 2774.41 760.738 2773.67 722.435H2856.34C2860.1 760.769 2878.89 781.818 2931.51 781.818C2980.37 781.818 3015.67 752.509 3015.67 678.105V633.775C2993.89 671.344 2954.79 691.659 2902.93 691.659C2816.5 691.659 2773.67 630.044 2773.67 545.849V332.395H2855.6V528.563C2855.6 580.42 2872.89 619.488 2931.51 619.488C2990.13 619.488 3015.67 573.627 3015.67 513.51V332.395H3097.6V332.331Z" fill="white"/>
<path d="M2222.01 847.169L2251.06 904.256H2189.06L2165.72 857.821H2150.67V904.256H2096.7V722.662H2184.38C2223.28 722.662 2251.83 751.461 2251.83 790.369C2251.83 815.022 2240.41 835.497 2222.01 847.169ZM2150.67 816.042H2172.99C2186.74 816.042 2197.1 805.135 2197.1 790.369C2197.1 775.603 2186.74 764.696 2173.25 764.696H2150.67V816.074V816.042Z" fill="white"/>
<path d="M2278.74 813.455C2278.74 757.165 2319.72 716.949 2379.39 716.949C2435.94 716.949 2472.77 744.695 2477.21 792.438H2420.12C2416.48 775.822 2401.97 764.947 2379.65 764.947C2351.62 764.947 2335.03 783.635 2335.03 813.455C2335.03 843.274 2351.65 861.962 2379.65 861.962C2401.97 861.962 2416.48 851.055 2420.12 834.471H2477.21C2472.81 882.214 2435.97 909.96 2379.39 909.96C2319.72 909.96 2278.74 869.744 2278.74 813.455Z" fill="white"/>
<path d="M2519.96 722.662H2588.44L2627.09 841.205L2665.49 722.662H2732.43V904.256H2680.54V789.062L2647.34 904.256H2607.38L2571.85 788.551V904.256H2519.96V722.662Z" fill="white"/>
<path d="M481.812 640.726L517.148 676.062C571.78 730.694 645.865 761.374 723.107 761.374C723.107 628.129 615.089 520.078 481.812 520.078C348.535 520.078 240.517 628.097 240.517 761.374C317.759 761.374 391.844 730.694 446.476 676.062L481.812 640.726Z" fill="white"/>
<path d="M325.126 369.297L276.842 382.245C202.246 402.209 138.621 451.036 100 517.914C215.417 584.536 362.982 544.99 429.605 429.605C496.227 314.187 456.681 166.623 341.295 100C302.674 166.91 292.214 246.385 312.21 321.012L325.158 369.297H325.126Z" fill="white"/>
<path d="M638.563 369.294L651.511 321.01C671.508 246.382 661.015 166.907 622.394 99.9977C506.977 166.62 467.462 314.185 534.085 429.602C600.707 545.02 748.272 584.534 863.689 517.911C825.068 451.002 761.443 402.207 686.848 382.211L638.563 369.262V369.294Z" fill="white"/>
</g>
<defs>
<clipPath id="clip0_2858_1276">
<rect width="2997.63" height="809.963" fill="white" transform="translate(100 100)"/>
</clipPath>
</defs>
</svg>
